!!!OTL: O ENGEL ALLERSCHOENSTES KIND
!!!ARE: Europa, Mitteleuropa, Deutschland, Hessen, Lahn - Kreis, Dill - Kreis
!!!SCT: E0561
!!!YEM: Copyright 1995, estate of Helmut Schaffrath.
**kern
*ICvox
*Ivox
*M3/4
*k[f#]
*G:
{8d
=1
8d
8g
4.g
8b
=2
8.b
16a
4a
8r}
{16g
16a
=3
4b
4dd
8.cc
16b
=4
4b
4a
8r}
{8g
=5
8g
8ee
4.dd
8ee
=6
8dd
8b
4.cc}
{8dd
=7
8b
8a
8b
8cc
4dd
=8
4cc
4b
8r}
==
!!!AGN: Liebes - Lied
!!!ONB: ESAC (Essen Associative Code) Database: ERK1
!!!AMT: simple triple
!!!AIN: vox
!!!EED: Helmut Schaffrath
!!!EEV: 1.0
*-
